X:307
T: Der geistliche Buchsbaum
N: A0654C
O: Europa, Mitteleuropa, Deutschland
N: M. Praetorius, Mus. Sion. VII. 1609 no. 194
R: Romanze, Ballade, Lied, religioeses Lied
M: 3/1
L: 1/1
K: G
G | G2G | A2B | c2c | A2
B | c2c | B2B | A2A | A2
A | G2G | G2E | F2G | A2
B | c2c | B2B | A3 | G2
B | c2c | B2c | A3 | G2

